build/img/sprite/icon-personal.svg

<svg width="16" height="16" viewBox="0 0 16 16" fill="none" xmlns="http://www.w3.org/2000/svg">
<path fill-rule="evenodd" clip-rule="evenodd" d="M8 16C12.4183 16 16 12.4183 16 8C16 3.58172 12.4183 0 8 0C3.58172 0 0 3.58172 0 8C0 12.4183 3.58172 16 8 16ZM8.00034 7.89063C9.16991 7.89063 10.1181 6.79584 10.1181 5.44533C10.1181 4.09479 9.80681 3 8.00034 3C6.19386 3 5.88249 4.09479 5.88249 5.44533C5.88249 6.79584 6.83071 7.89063 8.00034 7.89063ZM11.9955 11.5256C11.9563 9.17301 11.6331 8.50264 9.15974 8.0783C9.15974 8.0783 8.81158 8.50004 8.00009 8.50004C7.1886 8.50004 6.84038 8.0783 6.84038 8.0783C4.39402 8.49801 4.05115 9.15844 4.00607 11.4492C4.00237 11.6363 4.00066 11.6461 4 11.6244C4.00015 11.6651 4.00033 11.7403 4.00033 11.8715C4.00033 11.8715 4.58917 13 8.00009 13C11.4109 13 11.9998 11.8715 11.9998 11.8715L12 11.6887C11.9993 11.7021 11.998 11.6761 11.9955 11.5256Z" fill="currentColor"/>
</svg>

<svg width="16" height="16" fill="none" xmlns="http://www.w3.org/2000/svg"><path fill-rule="evenodd" clip-rule="evenodd" d="M8 16A8 8 0 108 0a8 8 0 000 16zm0-8.11c1.17 0 2.118-1.094 2.118-2.445C10.118 4.095 9.807 3 8 3 6.194 3 5.882 4.095 5.882 5.445c0 1.35.949 2.446 2.118 2.446zm3.995 3.636c-.039-2.353-.362-3.023-2.835-3.448 0 0-.348.422-1.16.422-.811 0-1.16-.422-1.16-.422-2.446.42-2.789 1.08-2.834 3.371-.004.187-.005.197-.006.175v.247S4.59 13 8 13s4-1.129 4-1.129v-.182c0 .013-.002-.013-.005-.163z" fill="currentColor"/></svg>
